!!!COM: Mozart, Wolfgang Amadeus
!!!OTL: Musikalische Würfelspiele, Kontre-Tänze
!!!SCA: K<sup>6</sup> Anh. C30.01 (K<sup>3</sup> Anh. 294d)
**kern	**kern
*staff2	*staff2
*clefF4	*clefG2
*M2/4	*M2/4
*MM110	*MM110
*>[A,A1,A,A2,B]	*>[A,A1,A,A2,B]
*>norep[A,A2,B]	*>norep[A,A2,B]
*>A	*>A
=7	=7
4C	8cc
.	8cc
4C	8ee
.	8ee
=150	=150
16C	8gg
16E	.
16G	8ee
16E	.
4C	16cc
.	16ee
.	16gg
.	16ee
=86	=86
4GG	8ff
.	16ff
.	16dd
4GG	8b
.	16b
.	16dd
=37	=37
16C	8cc
16c	.
16B	8ee
16c	.
4C	4g
=120	=120
4D	16dd
.	16ee
.	16ff#
.	16gg
4F#	16aa
.	16bb
.	16ccc
.	16aa
=52	=52
16BB	8gg
16GG	.
16BB	8bb
16D	.
16G	8gg
16D	.
16BB	8dd
16GG	.
=49	=49
4C	16ee
.	16cc
.	16b
.	16a
8D	16g
.	16b
8DD	16f#
.	16a
=130	=130
*>A1	*>A1
4GG	4g 4b 4gg
16G	4r
16F	.
16E	.
16D	.
=130:|!	=130:|!
*>A2	*>A2
4GG	4g 4b 4gg
16GG	4r
16AA	.
16BB	.
16C#	.
=116||	=116||
*>B	*>B
8D	8dd
16C#	4ff#
16D	.
16Cn	.
16D	.
16C	8aa
16D	.
=157	=157
4G	16gg
.	16aa
.	16bb
.	16ccc
4GG	4ddd
=38	=38
8C	16cc
.	16ccc
8r	16gg
.	16ee
8C	16cc
.	16gg
8r	16ee
.	16cc
=107	=107
16BB	8dd
16D	.
16G	4b
16D	.
16G	.
16F	.
16E	8g
16D	.
=75	=75
16C	4cc
16GG	.
16AA	.
16BB	.
16C	8cc
16GG	.
16AA	8cc
16BB	.
=101	=101
16C	8gg
16G	.
16E	4ee
16G	.
16C	.
16G	.
16E	8cc
16G	.
=109	=109
16GG	8dd
16D	.
16BB	4ff
16D	.
16GG	.
16D	.
16BB	8b
16D	.
=171	=171
4C	4cc
4CC	4c
==	==
*-	*-
